!!!!SEGMENT: Mou2016-Jocundare_Jerusalem.krn
!!!id: Mou2016
!!!AGN: Motet
!!!SCT: Picker (1987)
!!!voices: 4
!!!COM: Jean Mouton
!!!OTL: Jocundare Jerusalem
**kern	**kern	**kern	**kern
*part4	*part3	*part2	*part1
*staff4	*staff3	*staff2	*staff1
*I"Bassus	*I"Tenor	*I"Altus	*I"Superius
*I'B	*I'T	*I'A	*I'S
*clefF4	*clefGv2	*clefGv2	*clefG2
*k[b-]	*k[b-]	*k[b-]	*k[b-]
*F:	*F:	*F:	*F:
*M2/1	*M2/1	*M2/1	*M2/1
*met(C)	*met(C)	*met(C)	*met(C)
!!Section: Prima pars: Jocundare Jerusalem
!!!OMD: Prima pars: Jocundare Jerusalem
=1	=1	=1	=1
0r	0r	0F	0f
=2	=2	=2	=2
0r	0r	1B-y	1f
.	.	1G	1g
=3	=3	=3	=3
0BB-y	0F	0d	0f
=4	=4	=4	=4
1BB-y	1F	1r	0r
1GG	1G	2r	.
.	.	2d	.
=5	=5	=5	=5
0D	[0F	2d	2r
.	.	2d	2a
.	.	[1f	2a
.	.	.	2a
=6	=6	=6	=6
0r	0F]	2f]	1.cc
.	.	4e	.
.	.	4d	.
.	.	[1c	.
.	.	.	2b-y
=7	=7	=7	=7
0r	0r	2c]	2.a
.	.	2A	.
.	.	.	8gL
.	.	.	8fJ
.	.	2c	2e
.	.	[2d	[2f
=8	=8	=8	=8
1r	0r	4d]	4f]
.	.	4c	4e
.	.	4B-y	4d
.	.	4A	4c
2r	.	2.B-y	1d
2D	.	.	.
.	.	8AL	.
.	.	8GJ	.
=9	=9	=9	=9
2D	2r	1F	0a
2D	2A	.	.
[1F	2A	1r	.
.	2A	.	.
=10	=10	=10	=10
2F]	1.c	0r	0r
4E	.	.	.
4D	.	.	.
[1C	.	.	.
.	2B-y	.	.
=11	=11	=11	=11
2C]	2.A	0r	0r
2AA	.	.	.
.	8GL	.	.
.	8FJ	.	.
2C	2E	.	.
[2D	[2F	.	.
=12	=12	=12	=12
4D]	4F]	1r	0r
4C	4E	.	.
4BB-y	4D	.	.
4AA	4C	.	.
1BB-y	1D	1F	.
=13	=13	=13	=13
0FF	0A	1F	0cc
.	.	2r	.
.	.	[2F	.
=14	=14	=14	=14
0r	0r	4F]	1cc
.	.	4G	.
.	.	4A	.
.	.	4B-y	.
.	.	2c	[1a
.	.	[2d	.
=15	=15	=15	=15
1r	1F	4d]	2a]
.	.	4c	.
.	.	1f	4g
.	.	.	4f
1C	[1c	.	1g
.	.	2e	.
=16	=16	=16	=16
0F	2c]	[0f	[0a
.	4B-y	.	.
.	4c	.	.
.	2d	.	.
.	[2c	.	.
=17	=17	=17	=17
2.F	4c]	0f]	0a]
.	4B-y	.	.
.	4A	.	.
4E	4G	.	.
4D	4F	.	.
4C	4E	.	.
[2F	2D	.	.
=18	=18	=18	=18
4F]	2.A	0r	0r
4E	.	.	.
2D	.	.	.
.	4B-y	.	.
2C	4c	.	.
.	4B-y	.	.
[2D	4A	.	.
.	4G	.	.
=19	=19	=19	=19
4D]	2B-y	1r	0r
4GG	.	.	.
2C	1A	.	.
1BB-y	.	1d	.
.	2G	.	.
=20	=20	=20	=20
1AA	1A	1c	1r
1r	2r	2d	1a
.	2F	[2f	.
=21	=21	=21	=21
0r	2.c	2f]	1g
.	.	2e	.
.	4B-y	.	.
.	2A	2.f	2a
.	2F	.	[2cc
.	.	4e	.
=22	=22	=22	=22
1GG	2.G	4d	2cc]
.	.	4c	.
.	.	2.d	2b-y
.	4F	.	.
1AA	2E	.	1cc
.	.	4c	.
.	2C	[2c	.
=23	=23	=23	=23
1GG	1D	2c]	2r
.	.	2Bni	1g
1C	1C	1c	.
.	.	.	2g
=24	=24	=24	=24
1FF	2r	1A	2a
.	1c	.	4g
.	.	.	4f
1C	.	1G	2e
.	2c	.	[2c
=25	=25	=25	=25
2r	2A	2.c	4c]
.	.	.	4d
1C	2G	.	4e
.	.	4d	4f
.	2c	2e	4g
.	.	.	4a
2BB-y	[2d	[2f	[2b-y
=26	=26	=26	=26
1F	2d]	2f]	4b-]
.	.	.	4a
.	2c	2f	1a
1G	1B-y	1d	.
.	.	.	2g
=27	=27	=27	=27
1D	1A	2r	[0a
.	.	2d	.
2r	1r	2d	.
2D	.	2d	.
=28	=28	=28	=28
2D	1r	1.f	0a]
2D	.	.	.
[1F	2r	.	.
.	2A	4e	.
.	.	4d	.
=29	=29	=29	=29
2F]	2A	2c	0r
4E	2A	2d	.
4D	.	.	.
2C	[1c	2e	.
2FF	.	2f	.
=30	=30	=30	=30
2.C	2c]	1e	0r
.	4B-y	.	.
4D	4A	.	.
4E	2G	1r	.
4F	.	.	.
2G	2C	.	.
=31	=31	=31	=31
4C	2.G	0r	0r
4D	.	.	.
4E	.	.	.
4F	4A	.	.
2G	4B-y	.	.
.	4c	.	.
2F	[2d	.	.
=32	=32	=32	=32
2E	4d]	0r	0r
.	4c	.	.
4D	1c	.	.
4C	.	.	.
1D	.	.	.
.	2Bni	.	.
=33	=33	=33	=33
[0C	0c	2r	0r
.	.	2G	.
.	.	2G	.
.	.	2G	.
=34	=34	=34	=34
0C]	0r	1.c	2r
.	.	.	2e
.	.	.	2e
.	.	4B-y	2e
.	.	4A	.
=35	=35	=35	=35
0r	0r	2G	1.g
.	.	2C	.
.	.	2.G	.
.	.	.	4f
.	.	4A	4e
=36	=36	=36	=36
1.BB-y	2r	4B-y	1d
.	.	4c	.
.	1B-y	2.d	.
.	.	.	[1f
.	.	4c	.
2C	4A	[2c	.
.	4G	.	.
=37	=37	=37	=37
1D	1F	2c]	2f]
.	.	2Bni	2f
1C	1G	[1c	[1e
=38	=38	=38	=38
0AA	1A	1c]	1e]
.	2E	1r	1c
.	[2F	.	.
=39	=39	=39	=39
1BB-y	2F]	1r	1d
.	1G	.	.
1C	.	2r	1e
.	4F	[2c	.
.	4E	.	.
=40	=40	=40	=40
1FF	1A	2c]	1f
.	.	4B-y	.
.	.	4A	.
1GG	1G	1B-y	1e
=41	=41	=41	=41
1r	1c	1A	4c
.	.	.	4d
.	.	.	4e
.	.	.	4f
2r	2.B-y	1G	4g
.	.	.	4a
[2G	.	.	[2b-y
.	4A	.	.
=42	=42	=42	=42
4G]	2G	2d	4b-]
4F	.	.	4a
4E	2.c	1e	4g
4D	.	.	4f
2C	.	.	2g
.	4B-y	.	.
[2F	4A	4d	[2a
.	4G	4c	.
=43	=43	=43	=43
2F]	2A	1d	4a]
.	.	.	4g
2BB-y	2B-y	.	1f
1C	1G	1c	.
.	.	.	2e
=44	=44	=44	=44
[0FF	[0F	0c	1f
.	.	.	1r
=45	=45	=45	=45
0FF]	0F]	0r	1cc
.	.	.	1a
=46	=46	=46	=46
0r	0r	1f	2cc
.	.	.	1dd
.	.	1d	.
.	.	.	4cc
.	.	.	4b-y
=47	=47	=47	=47
0r	0r	2f	2a
.	.	1g	1b-y
.	.	4f	4a
.	.	4e	4g
=48	=48	=48	=48
0r	0r	1d	2b-y
.	.	.	2.a
.	.	[1f	.
.	.	.	4g
.	.	.	4a
.	.	.	4b-y
=49	=49	=49	=49
0r	0r	2f]	1cc
.	.	2e	.
.	.	2d	2b-y
.	.	[2c	[2a
=50	=50	=50	=50
0r	0r	2c]	2a]
.	.	4B-y	4g
.	.	4A	4f
.	.	2B-y	1g
.	.	2c	.
=51	=51	=51	=51
0r	1c	0F	[0a
.	1A	.	.
=52	=52	=52	=52
1F	2c	0r	0a]
.	1d	.	.
1D	.	.	.
.	4c	.	.
.	4B-y	.	.
=53	=53	=53	=53
2F	2A	0r	0r
1G	1B-y	.	.
4F	4A	.	.
4E	4G	.	.
=54	=54	=54	=54
1D	2B-y	0r	0r
.	2.A	.	.
[1F	.	.	.
.	4G	.	.
.	4A	.	.
.	4B-y	.	.
=55	=55	=55	=55
2F]	1c	0r	0r
2E	.	.	.
2D	2B-y	.	.
[2C	[2A	.	.
=56	=56	=56	=56
2C]	2A]	1r	0r
4BB-y	4G	.	.
4AA	4F	.	.
2BB-y	1G	2r	.
2C	.	[2c	.
=57	=57	=57	=57
1FF	1A	2c]	0r
.	.	4B-y	.
.	.	4A	.
2GG	1r	2B-y	.
2AA	.	2c	.
=58	=58	=58	=58
4BB-y	0r	2.F	0r
4C	.	.	.
4D	.	.	.
4E	.	4G	.
4F	.	4A	.
4G	.	4B-y	.
[2A	.	[2c	.
=59	=59	=59	=59
4A]	1F	2c]	0r
4G	.	.	.
1F	.	4B-y	.
.	.	4A	.
.	1G	2B-y	.
2E	.	[2c	.
=60	=60	=60	=60
1F	1A	4c]	2r
.	.	4B-y	.
.	.	1A	1cc
1r	1F	.	.
.	.	4G	4b-y
.	.	4F	4a
=61	=61	=61	=61
0r	2r	2G	2b-y
.	2c	2A	2cc
.	1d	1B-y	2.f
.	.	.	4g
=62	=62	=62	=62
0r	2.c	1A	4a
.	.	.	4b-y
.	.	.	1cc
.	4B-y	.	.
.	2A	1r	.
.	4G	.	4b-y
.	4F	.	4a
=63	=63	=63	=63
1r	2G	0r	2b-y
.	1A	.	1cc
[1F	.	.	.
.	2B-y	.	2b-y
=64	=64	=64	=64
2F]	2c	0A	2a
2E	2c	.	2g
2D	1d	.	1f
2C	.	.	.
=65	=65	=65	=65
1.BB-y	2r	0B-y	2.d
.	2.d	.	.
.	.	.	4e
.	.	.	2f
.	4c	.	.
2GG	4B-y	.	[2g
.	4A	.	.
=66	=66	=66	=66
1.C	2.G	1.c	4g]
.	.	.	4f
.	.	.	4e
.	4F	.	4d
.	4E	.	2e
.	4D	.	.
2GG	2G	2B-y	[2d
=67	=67	=67	=67
1AA	2E	2A	4d]
.	.	.	4c
.	4D	2F	1c
.	4C	.	.
1GG	1D	1G	.
.	.	.	2Bni
=68	=68	=68	=68
2r	0C	1G	1c
1C	.	.	.
.	.	1r	2r
2FF	.	.	2c
=69	=69	=69	=69
1AA	2r	0r	1c
.	2C	.	.
1GG	2D	.	1g
.	2E	.	.
=70	=70	=70	=70
0FF	2.F	2r	0a
.	.	2F	.
.	8EL	.	.
.	8DJ	.	.
.	[1C	1F	.
=71	=71	=71	=71
2r	1C]	1.c	2.g
2C	.	.	.
.	.	.	8fL
.	.	.	8gJ
1C	1r	.	4a
.	.	.	4g
.	.	2c	[2cc
=72	=72	=72	=72
1G	0r	1d	2cc]
.	.	.	2b-y
1r	.	2.c	1cc
.	.	8B-yL	.
.	.	8cJ	.
=73	=73	=73	=73
1r	2r	4d	1a
.	.	4c	.
.	2F	2.f	.
2r	1G	.	[1g
.	.	8eL	.
.	.	8fJ	.
2C	.	4e	.
.	.	4d	.
=74	=74	=74	=74
1C	2c	1e	1g]
.	2c	.	.
2G	1d	1r	1r
2G	.	.	.
=75	=75	=75	=75
1A	2.c	0r	2r
.	.	.	2a
.	8B-yL	.	.
.	8cJ	.	.
1F	4d	.	1a
.	4c	.	.
.	[2f	.	.
=76	=76	=76	=76
1G	2f]	0r	1g
.	2e	.	.
[1F	4f	.	[1a
.	4e	.	.
.	4d	.	.
.	4c	.	.
=77	=77	=77	=77
0F]	1d	1r	0a]
.	1c	[1f	.
=78	=78	=78	=78
0r	0r	1f]	2r
.	.	.	1cc
.	.	2e	.
.	.	[2d	2b-y
=79	=79	=79	=79
0r	0r	2d]	1a
.	.	2c	.
.	.	1B-y	1g
=80	=80	=80	=80
1F	2r	1A	1cc
.	1c	.	.
2E	.	1r	1r
[2D	2B-y	.	.
=81	=81	=81	=81
2D]	1A	0r	0r
2C	.	.	.
1BB-y	1G	.	.
=82	=82	=82	=82
0AA	0c	1r	2r
.	.	.	1e
.	.	[1A	.
.	.	.	2e
=83	=83	=83	=83
0r	0r	2A]	4c
.	.	.	4d
.	.	2A	4e
.	.	.	4f
.	.	4G	2.g
.	.	4A	.
.	.	4B-y	.
.	.	4c	8fL
.	.	.	8eJ
=84	=84	=84	=84
0r	0r	2d	2f
.	.	1c	2e
.	.	.	1d
.	.	2Bni	.
=85	=85	=85	=85
0r	2r	0c	1e
.	2C	.	.
.	1C	.	2r
.	.	.	2c
=86	=86	=86	=86
2r	1.F	1r	1c
2FF	.	.	.
1FF	.	2r	[1f
.	2E	2F	.
=87	=87	=87	=87
1.BB-y	1D	1F	2f]
.	.	.	2e
.	[1G	[1B-y	1d
2AA	.	.	.
=88	=88	=88	=88
1GG	2G]	2B-]	1.g
.	2F	2A	.
[1C	2E	1G	.
.	2D	.	2f
=89	=89	=89	=89
2C]	0C	1.c	2e
2BB-y	.	.	2d
2AA	.	.	[1c
2GG	.	2B-y	.
=90	=90	=90	=90
1FF	2r	2A	0c]
.	2C	2G	.
2r	1F	2.A	.
2FF	.	.	.
.	.	8GL	.
.	.	8FJ	.
=91	=91	=91	=91
2.C	2.G	1E	0r
4D	4F	.	.
4E	4G	1r	.
4F	4A	.	.
2G	2B-y	.	.
=92	=92	=92	=92
2F	2A	0r	0r
2E	4G	.	.
.	4A	.	.
1D	4B-y	.	.
.	4c	.	.
.	2d	.	.
=93	=93	=93	=93
2.F	4c	0r	0r
.	4B-y	.	.
.	4A	.	.
4E	4G	.	.
4D	2F	.	.
4C	.	.	.
2BB-y	[2G	.	.
=94	=94	=94	=94
2.C	2G]	0r	2r
.	2.A	.	2c
4BB-y	.	.	.
2AA	.	.	1f
.	4G	.	.
2BB-y	[2F	.	.
=95	=95	=95	=95
1GG	2F]	2r	1g
.	2E	2G	.
1FF	1F	2.c	1a
.	.	4d	.
=96	=96	=96	=96
0r	0r	4e	4g
.	.	4f	4a
.	.	2g	4b-y
.	.	.	4cc
.	.	2f	2dd
.	.	2e	2cc
=97	=97	=97	=97
0r	0r	1d	2b-y
.	.	.	2.a
.	.	2.f	.
.	.	.	4g
.	.	.	2cc
.	.	4e	.
=98	=98	=98	=98
0r	0r	4d	2.b-y
.	.	4c	.
.	.	2B-y	.
.	.	.	4a
.	.	2.c	4g
.	.	.	4f
.	.	.	[2g
.	.	4B-y	.
=99	=99	=99	=99
2r	2r	2.A	4g]
.	.	.	4f
2FF	2c	.	1f
.	.	8GL	.
.	.	8FJ	.
1C	2c	1G	.
.	2c	.	2e
=100	=100	=100	=100
2.D	2A	0F	1f
.	2d	.	.
4E	.	.	.
4F	4c	.	2r
4G	4B-y	.	.
[2A	4A	.	2c
.	4G	.	.
=101	=101	=101	=101
4A]	2F	2r	1f
4G	.	.	.
1F	2A	2c	.
.	1G	2c	1g
2E	.	2c	.
=102	=102	=102	=102
0F	1F	2A	2.a
.	.	2d	.
.	.	.	4g
.	2r	4c	4a
.	.	4B-y	4b-y
.	2A	4A	[2cc
.	.	4G	.
=103	=103	=103	=103
1r	2A	1F	2cc]
.	2A	.	4b-y
.	.	.	4a
2r	2.c	2r	2g
[2F	.	2c	[2a
.	4B-y	.	.
=104	=104	=104	=104
2F]	2A	1d	4a]
.	.	.	4g
2BB-y	2B-y	.	2.f
1C	[1G	1c	.
.	.	.	8eL
.	.	.	8dJ
.	.	.	2e
=105	=105	=105	=105
1GG	1G]	0B-y	0d
1BB-y	1F	.	.
=106	=106	=106	=106
2r	2r	2r	2r
2BB-y	2F	2B-y	2d
2BB-y	2F	1B-y	1d
2BB-y	2D	.	.
=107	=107	=107	=107
4FF	1F	1A	2.c
4GG	.	.	.
4AA	.	.	.
4BB-y	.	.	4d
2.C	2.E	1G	4e
.	.	.	4f
.	.	.	[2g
4D	4F	.	.
=108	=108	=108	=108
2E	2G	[0cl	4g]
.	.	.	4f
2F	2A	.	1f
1C	1G	.	.
.	.	.	2e
=	=	=	=
00FF	00F	00c]	00f
=||	=||	=||	=||
*M2/1	*M2/1	*M2/1	*M2/1
*met(C|)	*met(C|)	*met(C|)	*met(C|)
!!Section: Secunda pars: Cum igitur natus es
!!!OMD: Secunda pars: Cum igitur natus es
0r	0r	0f	1f
.	.	.	[1a
=109	=109	=109	=109
0r	0r	1d	2a]
.	.	.	2b-y
.	.	1c	2.cc
.	.	.	4b-y
=110	=110	=110	=110
0r	0r	0f	4a
.	.	.	4g
.	.	.	4f
.	.	.	4e
.	.	.	2d
.	.	.	[2a
=111	=111	=111	=111
0r	0r	0d	2a]
.	.	.	4g
.	.	.	4f
.	.	.	2b-y
.	.	.	2a
=112	=112	=112	=112
0r	0r	2.f	2r
.	.	.	4d
.	.	4e	4e
.	.	2.d	4f
.	.	.	4g
.	.	.	[2a
.	.	8cL	.
.	.	8B-yJ	.
=113	=113	=113	=113
0r	0r	2A	2a]
.	.	2.d	4g
.	.	.	4f
.	.	.	2.a
.	.	4c	.
.	.	4d	.
.	.	4e	4g
=114	=114	=114	=114
0r	1F	1f	4a
.	.	.	4b-y
.	.	.	1cc
.	1G	1d	.
.	.	.	2bni
=115	=115	=115	=115
0r	1A	1c	0cc
.	4F	2r	.
.	4G	.	.
.	4A	[2c	.
.	4B-y	.	.
=116	=116	=116	=116
1F	2c	2c]	0r
.	1d	4B-y	.
.	.	4A	.
1G	.	2B-y	.
.	4c	4A	.
.	4B-y	4G	.
=117	=117	=117	=117
1A	2c	4F	0r
.	.	4G	.
.	1F	4A	.
.	.	4B-y	.
1F	.	4c	.
.	.	4d	.
.	[2A	[2c	.
=118	=118	=118	=118
0r	4A]	4c]	1c
.	4G	4B-y	.
.	1c	2A	.
.	.	1G	1d
.	2B-y	.	.
=119	=119	=119	=119
1r	4c	2r	1e
.	4B-y	.	.
.	4A	1c	.
.	4G	.	.
1FF	1A	.	2c
.	.	4B-y	2f
.	.	4A	.
=120	=120	=120	=120
1GG	1G	1B-y	2e
.	.	.	2d
1AA	1E	1c	[1a
=121	=121	=121	=121
1FF	1F	0c	2a]
.	.	.	2a
1C	[1G	.	4g
.	.	.	4f
.	.	.	4e
.	.	.	4d
=122	=122	=122	=122
[0C	2G]	[0c	[0e
.	4F	.	.
.	4E	.	.
.	1A	.	.
=123	=123	=123	=123
0C]	0G	0c]	0e]
=124	=124	=124	=124
2r	2G	0r	0r
2C	2A	.	.
2D	2B-y	.	.
2E	[2c	.	.
=125	=125	=125	=125
2.F	4c]	0r	0r
.	4B-y	.	.
.	4A	.	.
4E	4G	.	.
4D	4F	.	.
4C	4E	.	.
4BB-y	2D	.	.
4AA	.	.	.
=126	=126	=126	=126
2GG	2.G	0r	0r
1C	.	.	.
.	4F	.	.
.	2E	.	.
4BB-y	4D	.	.
4AA	4C	.	.
=127	=127	=127	=127
2BB-y	2D	1r	2r
2C	2E	.	2g
1FF	1F	2c	2a
.	.	2d	2b-y
=128	=128	=128	=128
0r	0r	2e	2.cc
.	.	2.f	.
.	.	.	4b-y
.	.	.	4a
.	.	4e	4g
.	.	4d	4f
.	.	4c	4e
=129	=129	=129	=129
1r	0r	4B-y	2d
.	.	4A	.
.	.	2G	1g
2r	.	1c	.
2C	.	.	4f
.	.	.	4e
=130	=130	=130	=130
2D	2r	1B-y	2f
2E	2G	.	2g
[1F	2A	1A	1c
.	2B-y	.	.
=131	=131	=131	=131
1F]	1c	2r	1r
.	.	2A	.
[1BB-y	1d	2B-y	[1f
.	.	2c	.
=132	=132	=132	=132
1BB-]	1.B-y	0d	1f]
1BB-y	.	.	1f
.	2B-y	.	.
=133	=133	=133	=133
1FF	2A	1c	1f
.	1F	.	.
[1BB-y	.	2B-y	1d
.	[2B-y	[2d	.
=134	=134	=134	=134
2BB-]	2B-]	2d]	1.f
2C	4A	4c	.
.	4G	4B-y	.
2D	2F	2A	.
2E	[2c	2G	2g
=135	=135	=135	=135
0F	2c]	2F	1a
.	4B-y	2c	.
.	4A	.	.
.	2d	2.A	2.f
.	[2c	.	.
.	.	4B-y	4g
=136	=136	=136	=136
2.FF	4c]	4c	4a
.	4B-y	4d	4b-y
.	1A	2c	2cc
4GG	.	.	.
4AA	.	2r	4c
4BB-y	.	.	4d
[2C	2G	2c	4e
.	.	.	4f
=137	=137	=137	=137
4C]	1c	1e	2.g
4D	.	.	.
4E	.	.	.
4F	.	.	4a
1G	1B-y	2d	4b-y
.	.	.	4cc
.	.	[2g	[2dd
=138	=138	=138	=138
1A	1c	2g]	2dd]
.	.	2f#i	1cc
1G	1d	1g	.
.	.	.	2bni
=139	=139	=139	=139
1r	0c	1r	1cc
1C	.	1e	1r
=140	=140	=140	=140
0F	1r	[0f	0a
.	1c	.	.
=141	=141	=141	=141
2.BB-y	0d	0f]	0b-y
4AA	.	.	.
4BB-y	.	.	.
4C	.	.	.
4D	.	.	.
4E	.	.	.
=142	=142	=142	=142
4F	1.c	0r	1a
4G	.	.	.
2.F	.	.	.
.	.	.	1r
4E	.	.	.
2G	2B-y	.	.
=143	=143	=143	=143
2F	2A	0r	0r
4E	4G	.	.
4D	4F	.	.
4C	2G	.	.
4BB-y	.	.	.
4AA	[2A	.	.
4GG	.	.	.
=144	=144	=144	=144
1FF	2A]	0r	0r
.	4G	.	.
.	4F	.	.
2AA	2.E	.	.
[2C	.	.	.
.	4F	.	.
=145	=145	=145	=145
2C]	2G	0r	0r
4BB-y	1A	.	.
4AA	.	.	.
1BB-y	.	.	.
.	2G	.	.
=146	=146	=146	=146
0AA	0A	1r	1.cc
.	.	[1c	.
.	.	.	2b-y
=147	=147	=147	=147
0r	0r	2c]	2a
.	.	2d	4g
.	.	.	4f
.	.	2e	2g
.	.	[2f	[2a
=148	=148	=148	=148
0r	0r	2f]	2a]
.	.	4e	4g
.	.	4d	4f
.	.	4c	2.e
.	.	4A	.
.	.	[2c	.
.	.	.	4f
=149	=149	=149	=149
0r	1c	2c]	2g
.	.	4B-y	1a
.	.	4A	.
.	[1d	1B-y	.
.	.	.	2g
=150	=150	=150	=150
1D	1d]	1A	0a
1F	[1c	1r	.
=151	=151	=151	=151
1C	1c]	1e	0cc
2r	1A	[1f	.
[2F	.	.	.
=152	=152	=152	=152
4F]	1F	1f]	1a
4E	.	.	.
2.D	.	.	.
.	[1B-y	[1d	1f
4C	.	.	.
4BB-y	.	.	.
4AA	.	.	.
=153	=153	=153	=153
1GG	2B-]	2d]	1b-y
.	4A	2B-y	.
.	4G	.	.
2r	2A	2c	2a
2GG	2B-y	[2d	[2g
=154	=154	=154	=154
2D	2A	4d]	4g]
.	.	4c	4f
2D	4G	4B-y	1f
.	4F	4A	.
1C	1G	1c	.
.	.	.	2e
=155	=155	=155	=155
1FF	1F	1c	0f
1BB-y	1r	1r	.
=156	=156	=156	=156
1.GG	1B-y	0r	0r
.	1G	.	.
2GG	.	.	.
=157	=157	=157	=157
1D	1F	0r	1f
1BB-y	1B-y	.	1d
=158	=158	=158	=158
1F	1c	1r	1c
1BB-y	2.d	1B-y	1f
.	4c	.	.
=159	=159	=159	=159
0r	4B-y	1G	1g
.	4A	.	.
.	2B-y	.	.
.	2c	1F	2.a
.	[2d	.	.
.	.	.	4g
=160	=160	=160	=160
0r	2d]	1B-y	2f
.	4c	.	4e
.	4B-y	.	4d
.	2.A	1c	1e
.	4G	.	.
=161	=161	=161	=161
0r	4F	2.d	2d
.	4E	.	.
.	2D	.	2.a
.	.	4c	.
.	1E-X	2B-y	.
.	.	.	4g
.	.	4A	[2g
.	.	4G	.
=162	=162	=162	=162
1r	1D	1A	2g]
.	.	.	2f#i
2.GG	2r	1G	1g
.	[2G	.	.
4AA	.	.	.
=163	=163	=163	=163
4BB-y	2G]	1d	0r
4C	.	.	.
2D	2F	.	.
2C	2.G	2e	.
2BB-y	.	2d	.
.	4F	.	.
=164	=164	=164	=164
2C	2E	4d	0r
.	.	4c	.
2AA	4D	1c	.
.	4C	.	.
1GG	1D	.	.
.	.	2Bni	.
=165	=165	=165	=165
2r	1C	0c	0r
2.C	.	.	.
.	2.G	.	.
4BB-y	.	.	.
4C	.	.	.
4D	4F	.	.
=166	=166	=166	=166
4E	4G	0r	0r
4F	4A	.	.
2G	2B-y	.	.
2E	2c	.	.
2F	[2d	.	.
=167	=167	=167	=167
1C	4d]	0r	0r
.	4c	.	.
.	1c	.	.
1D	.	.	.
.	2Bni	.	.
=168	=168	=168	=168
1C	1c	1r	1r
1F	1A	1c	1a
=169	=169	=169	=169
1F	1c	1A	1a
1E	1G	1c	1g
=170	=170	=170	=170
0D	0A	0d	0f
=171	=171	=171	=171
1D	0d	0f	1a
1BB-y	.	.	1b-y
=172	=172	=172	=172
0F	1c	0f	2a
.	.	.	2.cc
.	1A	.	.
.	.	.	4b-y
.	.	.	[2a
=173	=173	=173	=173
0G	0B-y	0d	2a]
.	.	.	4g
.	.	.	4f
.	.	.	1g
=174	=174	=174	=174
0D	0A	1d	0a
.	.	2r	.
.	.	[2d	.
=175	=175	=175	=175
2r	0r	2d]	1r
1D	.	2d	.
.	.	[1f	[1a
2D	.	.	.
=176	=176	=176	=176
1.F	0A	2f]	2a]
.	.	4e	2g
.	.	4d	.
.	.	1c	1f
2E	.	.	.
=177	=177	=177	=177
1D	1A	1d	1f
[1C	[1c	[1G	2.e
.	.	.	4d
=178	=178	=178	=178
1C]	2c]	1G]	4e
.	.	.	4f
.	2B-y	.	1g
1D	1A	1d	.
.	.	.	2f#i
=179	=179	=179	=179
1.E-X	1G	2c	0g
.	.	2B-y	.
.	[1e-X	[1c	.
2D	.	.	.
=180	=180	=180	=180
2C	2e-]	2c]	0r
2BB-y	2d	2d	.
1C	1c	1e-i	.
=	=	=	=
*M3/1	*M3/1	*M3/1	*M3/1
*met(3)	*met(3)	*met(3)	*met(3)
1.GG	1B-y	1.d	0b-y
.	1G	.	.
2AA	.	2c	.
2BB-y	[1d	2d	1b-y
2C	.	2e	.
=181	=181	=181	=181
1D	2d]	1f	1a
.	2c	.	.
1E	1B-y	1e	1g
[1F	[1A	[1c	1a
=182	=182	=182	=182
1F]	2A]	2c]	1.cc
.	4G	2d	.
.	4F	.	.
1C	1G	1e	.
.	.	.	2b-y
[1D	1F	1f	2a
.	.	.	2g
=183	=183	=183	=183
2D]	1.A	0d	2f
2C	.	.	2e
2D	.	.	2f
2E	2G	.	2g
1F	2F	1r	1a
.	2E	.	.
=184	=184	=184	=184
2F	1D	1.A	2a
2E	.	.	2g
1D	1F	.	1f
.	.	2B-y	.
1C	1G	[1c	1e
=185	=185	=185	=185
1AA	1A	1c]	1.f
1BB-y	0G	1d	.
.	.	.	4e
.	.	.	4d
1C	.	1c	1e
=	=	=	=
*M2/1	*M2/1	*M2/1	*M2/1
*met(C|)	*met(C|)	*met(C|)	*met(C|)
1FF	0F	2.A	0f
.	.	4G	.
2r	.	4A	.
.	.	4B-y	.
[2F	.	2c	.
=186	=186	=186	=186
2F]	1r	2A	0r
4E	.	4G	.
4D	.	4F	.
2E	1c	1G	.
2C	.	.	.
=187	=187	=187	=187
1D	1A	2F	0r
.	.	1f	.
1BB-y	1B-y	.	.
.	.	4e	.
.	.	4d	.
=188	=188	=188	=188
2r	2.A	2e	1cc
1F	.	2c	.
.	4G	.	.
.	4F	2d	1a
.	4D	.	.
2D	[2d	[2f	.
=189	=189	=189	=189
1G	2d]	2f]	1b-y
.	4c	2e	.
.	4B-y	.	.
2.F	2c	1f	2.a
.	2A	.	.
4E	.	.	4g
=190	=190	=190	=190
4D	2.B-y	0r	4f
4C	.	.	4e
1BB-y	.	.	2d
.	8AL	.	.
.	8GJ	.	.
.	2F	.	[1f
4AA	2G	.	.
4GG	.	.	.
=191	=191	=191	=191
1FF	1A	0c	2f]
.	.	.	2f
1C	[1G	.	[1e
=192	=192	=192	=192
0C	0G]	1c	1e]
.	.	1c	2.e
.	.	.	4d
=193	=193	=193	=193
0r	0r	1.G	4e
.	.	.	4f
.	.	.	1g
.	.	2A	4f
.	.	.	4e
=194	=194	=194	=194
0r	1r	2B-y	2d
.	.	1c	2c
.	1G	.	1d
.	.	2Bni	.
=195	=195	=195	=195
1r	2.A	1c	1c
.	4G	.	.
1F	4F	2r	1cc
.	4G	.	.
.	4A	2c	.
.	4B-y	.	.
=196	=196	=196	=196
1F	2c	2.f	1cc
.	2A	.	.
.	.	4e	.
1G	2B-y	2d	1b-y
.	[2d	2B-y	.
=197	=197	=197	=197
1F	2d]	1f	1a
.	2.c	.	.
1C	.	1e	1g
.	4B-y	.	.
.	4c	.	.
.	4B-y	.	.
=198	=198	=198	=198
1D	4A	0d	1f
.	4G	.	.
.	1B-y	.	.
1GG	.	.	1g
.	4A	.	.
.	4G	.	.
=199	=199	=199	=199
1D	1F	1d	1a
1C	1G	1e	2r
.	.	.	[2cc
=200	=200	=200	=200
1.F	2.A	0f	4cc]
.	.	.	4b-y
.	.	.	4a
.	4B-y	.	4g
.	2c	.	2a
2BB-y	[2d	.	[2b-y
=201	=201	=201	=201
1F	4d]	1f	4b-]
.	4c	.	4a
.	4B-y	.	1a
.	4A	.	.
1G	1B-y	1d	.
.	.	.	2g
=202	=202	=202	=202
1D	0A	0d	1a
1D	.	.	1a
=203	=203	=203	=203
0D	1d	1f	0a
.	1d	[1f	.
=204	=204	=204	=204
[0F	0c	1f]	0a
.	.	1f	.
=205	=205	=205	=205
1F]	1A	1c	2r
.	.	.	2a
1BB-y	1B-y	1d	2g
.	.	.	[2f
=206	=206	=206	=206
0C	0G	0c	2f]
.	.	.	4e
.	.	.	4d
.	.	.	1e
=207	=207	=207	=207
0FF	0F	1A	0f
.	.	2r	.
.	.	[2A	.
=208	=208	=208	=208
0r	0r	2A]	2r
.	.	4G	2c
.	.	4F	.
.	.	2A	1f
.	.	[2B-y	.
=209	=209	=209	=209
0r	0r	2B-]	1g
.	.	4A	.
.	.	4G	.
.	.	4F	[1a
.	.	4G	.
.	.	4A	.
.	.	4B-y	.
=210	=210	=210	=210
0r	0r	1.c	2a]
.	.	.	4g
.	.	.	4f
.	.	.	4e
.	.	.	4f
.	.	2B-y	[2g
=211	=211	=211	=211
2r	2r	2.A	4g]
.	.	.	4f
2FF	2c	.	1f
.	.	8GL	.
.	.	8FJ	.
1C	2c	1G	.
.	2c	.	2e
=212	=212	=212	=212
2.D	2A	0F	1f
.	2d	.	.
4E	.	.	.
4F	4c	.	2r
4G	4B-y	.	.
[2A	4A	.	2c
.	4G	.	.
=213	=213	=213	=213
4A]	2F	2r	1f
4G	.	.	.
1F	2A	2c	.
.	1G	2c	1g
2E	.	2c	.
=214	=214	=214	=214
1F	0F	2A	2.a
.	.	2d	.
.	.	.	4g
1r	.	4c	4a
.	.	4B-y	4b-y
.	.	4A	[2cc
.	.	4G	.
=215	=215	=215	=215
1r	1A	2F	2cc]
.	.	2f	4b-y
.	.	.	4a
2r	2.c	2e	2g
[2F	.	2c	[2a
.	4B-y	.	.
=216	=216	=216	=216
2F]	2A	1d	4a]
.	.	.	4g
2BB-y	2B-y	.	2.f
1C	[1G	1c	.
.	.	.	8eL
.	.	.	8dJ
.	.	.	2e
=217	=217	=217	=217
2.GG	1G]	0B-y	0d
4AA	.	.	.
1BB-y	1F	.	.
=218	=218	=218	=218
2r	2r	2r	2r
2BB-y	2F	2B-y	2d
2BB-y	2F	1B-y	1d
2BB-y	2D	.	.
=219	=219	=219	=219
4FF	1F	1A	2.c
4GG	.	.	.
4AA	.	.	.
4BB-y	.	.	4d
2.C	2.E	1G	4e
.	.	.	4f
.	.	.	[2g
4D	4F	.	.
=220	=220	=220	=220
2E	2G	[0cl	4g]
.	.	.	4f
2F	2A	.	1f
1C	1G	.	.
.	.	.	2e
=221	=221	=221	=221
00FFl	00Fl	00c]	00fl
==	==	==	==
*-	*-	*-	*-
!!!system-decoration: [*]
!!!RDF**kern: i = editorial accidental
!!!RDF**kern: l = terminal long
!!!ENC: Benjamin Ory
!!!END: 2022/5/4
!!!EED: Benjamin Ory
!!!EEV: 2022/05/04
!!!YEC: Copyright 2022 Benjamin Ory, All Rights Reserved
!!!ONB: Translated from MusicXML on 2022/05/04
